X: 4
T: Across The Black River
R: jig
M: 6/8
L: 1/8
K: Bmin
|:"Bm" ~B3 BAB | FAB A2 f | "A" ecA ABc | ~B2 A +slide+F2 E |"Bm" ~B3 BAB |AFE Ace |"D" ~f3 fec |1 "Bm" ~B3-B2 A :|2 "Bm" ~B3-Bcd |||: "A" efe e2 c | "Bn" ~B A ~F3 | "F#m7" EFA cBA | "A" c2 e "Bm" Bcd |"A" efe e2 c | "Bn" ~B A ~F3 | BcB A2 E | "F#m" F3 F3 :|


Tune 5114	Setting 5114

